!!!ONB: MCCC : IJH0465_02 : Extracted Monophonic Melody
!!!COM: Haydn, Joseph
!!!OPR: String Quartet in G major
!!!OMV: 2
!!!SCT: Hob.III:75 ; Op.76 No.1
!!!ODT: 1796///
**kern
*thru
*k[]
*C:
*clefF
*M2/4
4e
4d
=1
8.c
16c#
8d
8e
=2
8f
8a
8g
8f
=3
4e
8.d
16d#
=4
4e
4d
=5
4c
8d
8e
=6
8f
24a
24f
24d
8c
24B
24d
24g
=7
4f
8e
8r
=8
4ee
4dd
=9
8.cc
16cc#
8dd
8ee
=10
8ff
8aa
8gg
8ff
=11
4ee
8.dd
16ee
=12
4ff
4ee
=13
8dd
8ee
8ff
8ff#
=14
6..gg[
48gg]
16ff
16ee
16dd
=15
4cc
4r
=16
32r
32g
32a
32b
32cc
32dd
32ee
32ff#
32gg
32ff#
32gg
32aa
32gg
32bb-
32aa
32gg
=17
8ff
4.r
=18
32r
32a
32b
32cc#
32dd
32ee
32ff
32gg#
32aa
32gg#
32aa
32gg#
32aa
32bb-
32aa
32gg
=19
8ff
16r
16ddd
16aa
16bb-
16ff
16gg
=20
8aa
4.r
=21
32r
32aa
32gg#
32aa
32ee
32ff
32cc#
32dd
32g#
32a
32cc#
32dd
32ee
32ff
32gg#
32aa
=22
8cc
32b
32f#
32g
32b
32dd
32ff
32gg
32bb
32ddd
32bb
32gg
32ff
=23
16ff
16ee
32r
32eee
32ddd#
32eee
32bb
32ccc
32gg#
32aa
32bb
32ccc
32ddd
32eee
=24
32gg
32ff#
32r
32eee
32r
32ddd
32r
32ccc
32r
32bb
32r
32aa
32r
32gg
32r
32ff#
=25
32r
32aa
32r
32gg
32r
32eee
32r
32ddd
32r
32ccc
32r
32bb
32r
32aa
32r
32gg
=26
32r
32gg#
32r
32gg#
32r
32gg#
32r
32gg#
32r
32aa
32r
32aa
32r
32aa
32r
32aa
=27
32r
32bb-
32r
32bb-
32r
32bb-
32r
32bb-
32r
16bb-
32bb-
32r
16bb-
32bb-
=28
32r
16bb-
16bb-
16bb-
32bb-
32r
16bb-
16bb-
16bb-
32bb-
=29
32r
16bb
16bb
16bb
32bb
32r
32gg
32dd
32bb
32gg
32bb
32gg
32ddd
=30
32bb
32ddd
32bb
32ggg
32ddd
32ggg
32ddd
32bbb
32ggg
32bbb
32ggg
32ddd
32bb
32ddd
32ggg
32ddd
=31
8bbb
8r
8f#
8r
=32
4b
4a
=33
4g
4g#
=34
4.a
8a#
=35
6..b[
48b]
16d
16g
16b
=36
4dd
4dd#
=37
8ee
4ff
8ee
=38
6..dd[
48dd]
16cc
16b
16a
=39
8g
4.r
=40
32r
32d
32e
32f#
32g
32a
32b
32cc#
32dd
32cc#
32dd
32ee
32dd
32ff
32ee
32dd
=41
8cc
4.r
=42
32r
32e
32f#
32g#
32a
32b
32cc
32dd#
32ee
32dd#
32ee
32dd#
32ee
32ff
32ee
32dd
=43
4cc#
32cc
32b
32cc
32b
32cc
32ee
32dd
32cc
=44
4b
32cc
32b
32cc
32b
32cc
32gg
32ff
32ee
=45
32dd
32cc#
32dd
32cc#
32dd
32aa
32gg
32ff
32ee
32dd#
32ee
32dd#
32ee
32gg
32ff
32ee
=46
32dd
32ee
32ff
32ee
32gg
32ff
32aa
32gg
32ff
32ee
32aa
32gg
32ff
32ee
32aa
32gg
=47
32ff
32gg#
32aa
32gg#
32aa
32gg#
32aa
32gg
32ff
32ee
32dd
32cc
32b
32a
32g
32f
=48
4e
4d
=49
8.c
16c#
8d
8e
=50
8f
8a
8g
8f
=51
4e
8.d
16e
=52
4f
4e
=53
8d
8e
8f
8f#
=54
6..g[
48g]
16f
16e
16d
=55
8c
16r
16cc
16g
16a-
16e-
16f
=56
8g
4.r
=57
8.r
16dd
16a
16b-
16f
16g
=58
8a
4.r
=59
8.r
16ff
16cc#
16dd
16ee
16dd
=60
32cc
32aa
32r
32gg
32r
32ff
32r
32ee
32r
32dd#
32r
32ee
32r
32ff
32r
32gg
=61
32r
32aa
32r
32gg
32r
32ff
32r
32ee
32r
32dd#
32r
32ee
32r
32ff
32r
32gg
=62
32r
32aa
32r
32gg
32r
32ff
32r
32ee
32r
32ee-
32r
32dd
32r
32ee-
32r
32dd
=63
32r
32aa
32r
32ee-
32r
32dd
32r
32aa
32r
32ee-
32r
32dd
32r
32ee-
32r
32dd
=64
32r
32fff
32r
32eee
32r
32ddd
32r
32ccc
32r
32bb
32r
32aa
32r
32gg
32r
32ff
=65
16ee
16ee
16ee
16ee
16ee
16ee
16ee
16ee
=66
8aa
3r
96r
32dd
=67
8gg
3r
96r
32cc
=68
8ff
16.r
32ff
8aa-
16.r
32aa-
=69
8gg
16.r
32ff
16ee
16r
16dd
16r
=70
8cc
8r
8b
8r
=71
4e
4d
=72
8.c
16c#
8d
8e
=73
8f
8a
8g
8f
=74
4e
8.d
16d#
=75
4e
4d
=76
4c
8d
8e
=77
8f
24a
24f
24d
8c
24B
24d
24f
=78
8e
4r
32r
32g
32e
32c
=79
8G
4r
32r
32dd
32b
32f
=80
8e
4r
32r
32ee
32cc#
32g
=81
32a
32aa
32gg#
32aa
32ee
32ff
32cc#
32dd
32g#
32a
32cc#
32dd
32ee
32ff
32gg#
32aa
=82
32cc
32b
32r
32aa
32r
32gg
32r
32ff
32r
32ee
32r
32dd
32r
32cc
32r
32b
=83
32r
32dd
32r
32cc
32r
32aa
32r
32gg
32r
32ff
32r
32ee
32r
32dd
32r
32cc
=84
32r
32cc#
32r
32cc#
32r
32cc#
32r
32cc#
32r
32dd
32r
32dd
32r
32dd
32r
32dd
=85
32r
32ee-
32r
32ee-
32r
32ee-
32r
32ee-
32r
16ee-
32ee-
32r
16ee-
32ee-
=86
32r
16ee-
16ee-
16ee-
32ee-
32r
16ee-
16ee-
16ee-
32ee-
=87
32r
16ee
16ee
16ee
32ee
32r
32cc
32g
32ee
32cc
32gg
32ee
32ccc
=88
32gg
32eee
32ccc
32eee
32ccc
32ggg
32eee
32ggg
32eee
32ggg
32cccc
32ggg
32cccc
32ggg
32cccc
32ggg
=89
8eeee
8r
8b
8r
=90
8cc
12..r
96r
32aa
32ee
32ff
32cc#
32dd
32g
32b
=91
8cc
12..r
96r
32aa
32ee
32ff
32cc#
32dd
32g
32b
=92
8cc
8r
8cc
8r
=93
8cc
8e
8e
8e
=94
2e
==
*-
